X: 7692
T: Colin Rankin's
R: strathspey
M: 4/4
K: Bminor
B>b|:f<B f>e f<B f<e|d>e f>a e<A A>b|f<B f>e f>B f>e|1 d<B c>A B/B/B B>b:|2 d<B c>A B/B/B f<b||
B<c d<e f<B B>b|a>f e>d c>A A<c|B<c d<e f<B B>b|a>f e>c B/B/B f<b|
B<c d<e f<B B>b|a>f e>d c>A A<c|B>d c<e d>f e>b|a>f e>c B/B/B B2||

